styles/1/Numix/48/places/default-folder-documents.svg

<?xml version="1.0" encoding="UTF-8" standalone="no"?>
<!-- Created with Inkscape (http://www.inkscape.org/) -->

<svg
   xmlns:dc="http://purl.org/dc/elements/1.1/"
   xmlns:cc="http://creativecommons.org/ns#"
   xmlns:rdf="http://www.w3.org/1999/02/22-rdf-syntax-ns#"
   xmlns:svg="http://www.w3.org/2000/svg"
   xmlns="http://www.w3.org/2000/svg"
   xmlns:sodipodi="http://sodipodi.sourceforge.net/DTD/sodipodi-0.dtd"
   xmlns:inkscape="http://www.inkscape.org/namespaces/inkscape"
   width="48"
   height="48"
   id="svg2"
   version="1.1"
   inkscape:version="0.91 r"
   sodipodi:docname="default-folder-documents.svg">
  <defs
     id="defs4" />
  <sodipodi:namedview
     id="base"
     pagecolor="#ffffff"
     bordercolor="#666666"
     borderopacity="1.0"
     inkscape:pageopacity="0.0"
     inkscape:pageshadow="2"
     inkscape:zoom="6.2323626"
     inkscape:cx="0.35991154"
     inkscape:cy="42.475566"
     inkscape:document-units="px"
     inkscape:current-layer="layer1"
     showgrid="true"
     inkscape:window-width="1280"
     inkscape:window-height="998"
     inkscape:window-x="0"
     inkscape:window-y="0"
     inkscape:window-maximized="1">
    <inkscape:grid
       type="xygrid"
       id="grid2990"
       empspacing="5"
       visible="true"
       enabled="true"
       snapvisiblegridlinesonly="true" />
  </sodipodi:namedview>
  <metadata
     id="metadata7">
    <rdf:RDF>
      <cc:Work
         rdf:about="">
        <dc:format>image/svg+xml</dc:format>
        <dc:type
           rdf:resource="http://purl.org/dc/dcmitype/StillImage" />
        <dc:title />
      </cc:Work>
    </rdf:RDF>
  </metadata>
  <g
     inkscape:label="Body"
     inkscape:groupmode="layer"
     id="layer1"
     transform="translate(0,-1004.3622)">
    <path
       style="font-size:medium;font-style:normal;font-variant:normal;font-weight:normal;font-stretch:normal;text-indent:0;text-align:start;text-decoration:none;line-height:normal;letter-spacing:normal;word-spacing:normal;text-transform:none;direction:ltr;block-progression:tb;writing-mode:lr-tb;text-anchor:start;baseline-shift:baseline;color:#000000;fill:#c4905e;fill-opacity:1;fill-rule:nonzero;stroke:none;stroke-width:3.00000024;marker:none;visibility:visible;display:inline;overflow:visible;enable-background:accumulate;font-family:Sans;-inkscape-font-specification:Sans"
       d="M 5.1875 8 C 4.511132 8.1439 3.984919 8.8086 4 9.5 L 4 37.5 C 4.000079 38.2853 4.714623 38.9999 5.5 39 L 42.5 39 C 43.285377 38.9999 43.999921 38.2853 44 37.5 L 44 12.53125 C 43.999921 11.74585 43.285377 11.03135 42.5 11.03125 L 28 11.03125 L 28 9.5 C 27.999921 8.7146 27.285377 8 26.5 8 L 5.5 8 C 5.396212 7.989 5.291288 7.989 5.1875 8 z M 20 17 L 25 17 L 30 22 L 30 31 C 30 32.108 29.108 33 28 33 L 20 33 C 18.892 33 18 32.108 18 31 L 18 19 C 18 17.892 18.892 17 20 17 z M 20 19 L 20 31 L 28 31 L 28 22 L 25 22 L 25 19 L 20 19 z M 21.25 24 L 24.75 24 C 24.8885 24 25 24.1115 25 24.25 L 25 24.75 C 25 24.8885 24.8885 25 24.75 25 L 21.25 25 C 21.1115 25 21 24.8885 21 24.75 L 21 24.25 C 21 24.1115 21.1115 24 21.25 24 z M 21.25 26 L 26.75 26 C 26.8885 26 27 26.1115 27 26.25 L 27 26.75 C 27 26.8885 26.8885 27 26.75 27 L 21.25 27 C 21.1115 27 21 26.8885 21 26.75 L 21 26.25 C 21 26.1115 21.1115 26 21.25 26 z M 21.25 28 L 26.75 28 C 26.8885 28 27 28.1115 27 28.25 L 27 28.75 C 27 28.8885 26.8885 29 26.75 29 L 21.25 29 C 21.1115 29 21 28.8885 21 28.75 L 21 28.25 C 21 28.1115 21.1115 28 21.25 28 z "
       transform="translate(0,1004.3622)"
       id="path3912" />
  </g>
</svg>

<!-- Created with Inkscape (http://www.inkscape.org/) -->
<svg xmlns="http://www.w3.org/2000/svg" viewBox="0 0 48 48">
 <g transform="translate(0,-1004.3622)">
  <path d="m 5.188 8 c -0.676 0.144 -1.203 0.809 -1.188 1.5 l 0 28 c 0 0.785 0.715 1.5 1.5 1.5 l 37 0 c 0.785 0 1.5 -0.715 1.5 -1.5 l 0 -24.969 c 0 -0.785 -0.715 -1.5 -1.5 -1.5 l -14.5 0 l 0 -1.531 c 0 -0.785 -0.715 -1.5 -1.5 -1.5 l -21 0 c -0.104 -0.011 -0.209 -0.011 -0.313 0 z m 14.813 9 l 5 0 l 5 5 l 0 9 c 0 1.108 -0.892 2 -2 2 l -8 0 c -1.108 0 -2 -0.892 -2 -2 l 0 -12 c 0 -1.108 0.892 -2 2 -2 z m 0 2 l 0 12 l 8 0 l 0 -9 l -3 0 l 0 -3 l -5 0 z m 1.25 5 l 3.5 0 c 0.139 0 0.25 0.111 0.25 0.25 l 0 0.5 c 0 0.139 -0.111 0.25 -0.25 0.25 l -3.5 0 c -0.139 0 -0.25 -0.111 -0.25 -0.25 l 0 -0.5 c 0 -0.139 0.111 -0.25 0.25 -0.25 z m 0 2 l 5.5 0 c 0.139 0 0.25 0.111 0.25 0.25 l 0 0.5 c 0 0.139 -0.111 0.25 -0.25 0.25 l -5.5 0 c -0.139 0 -0.25 -0.111 -0.25 -0.25 l 0 -0.5 c 0 -0.139 0.111 -0.25 0.25 -0.25 z m 0 2 l 5.5 0 c 0.139 0 0.25 0.111 0.25 0.25 l 0 0.5 c 0 0.139 -0.111 0.25 -0.25 0.25 l -5.5 0 c -0.139 0 -0.25 -0.111 -0.25 -0.25 l 0 -0.5 c 0 -0.139 0.111 -0.25 0.25 -0.25 z" transform="translate(0,1004.3622)" style="visibility:visible;fill:#c4905e;fill-opacity:1;stroke:none;display:inline;color:#000;fill-rule:nonzero"/>
 </g>
</svg>
